X:1
T:Heroes
T:Avengers:   Age of Ultron 
T:Danny Elfman
T:Enush J Biju
%%score { 1 | 2 }
L:1/8
Q:1/4=144
M:4/4
K:G
V:1 treble nm="Piano" snm="Pno."
V:2 bass 
V:1
 z8 | z8 | z8 | z8 | z8 | z8 | z4 z2 (3bbb | (3d'd'd' (3bbb (3fff (3bbd' | [B,F]6- [B,F]/ z/ E/F/ | %9
 [B,G]4 [B,D]4 | [B,E]6- [B,E]/ z/ D/E/ | [B,F]8 | [B,F]6- [B,F]/ z/ E/F/ | [B,G]4 [B,D]4 | %14
 [B,E]6- [B,E]/ z/ D/E/ | [B,F]4 B,4 | [DG]6- [DG]/ z/ A/G/ | [B,A]4 B,4 | [E^GB]8- | [EGB]8 | %20
 [Bf]6- [Bf]/ z/ e/f/ | [Bg]4 [Bd]3- [Bd]/f/ | [^GBe]8- | [GBe]3 D/^C/ D2 C2 | %24
 [B,F]6- [B,F]/ z/ e/f/ | [Bg]4 [Bd]3- [Bd]/f/ | [^GBe]8- | [GBe]8 | [eg]6 [dg][^ca] | %29
 [db]4 [FB]4 | [eg]2 e2 [Bb]2 [ea]g | [df]2 ^c2 [dd']2 B2 | [^ce^c']2 [Aca]2 [faf']4 | %33
 [gb]2 d2 ^c2 B2 | [^ca]4 [Af]4 | [f^c']8 | [^c_b]4 [_Bf]4 | [f_bf']8 |[K:E] [G,D]2 d2 g3 C/D/ | %39
 [G,E]4 B,4 | [G,C]2 d2 ^a2 B,>C | [G,D]6 B,2 | z2 B,2 [G,D]3 C/D/ | [G,E]4 B,4 | %44
 [G,C]2 G2 d3 B,/C/ | [G,D]3 D [^Ad^a]4 | [GBg]6- [GBg]/ z/ [F^Af]/[EGe]/ | [DFd]4 [G,DG]4 | %48
 [GBg]6- [GBg] z/ [^Ac^a]/ | [FBf]4 [DFd]4 | [G,EG]6- [G,EG] z/ d/ | [^EGc]6- [EGc]/ z/ B/^A/ | %52
 [DGB]4 [DG]2 [Bd]2 | [Beg]8- | [Beg]8 |[K:C#] [A,E]6- [A,E]/ z/ D/E/ | [A,F]4 C3- C/[Ee]/ | %57
 [Dd]8- | [Dd]3 c/B/ c2 B2 | [A,E]6- [A,E]/ z/ D/E/ | [A,F]4 C3- C/[Ee]/ | [Dd]8- | %62
 [Dd]3 c/B/ [Fc]2 [GB]2 | [A,A]8 | A,6- A, z/ E/ | [A,D]8- | [A,D]8 | [A,E]6- [A,E]/ z/ D/E/ | %68
 [A,F]4 C3- C/E/ | [A,D]6- [A,D]/ z/ C/D/ | [A,E]4 A,4 | [A,A]8- | [A,A]4 A,3 A, | A8- | A8 |] %75
V:2
 [B,,,,B,,,]2 (3B,,B,,B,, (3D,D,D, (3B,,B,,B,, | %1
 [B,,,,B,,,]2 (3B,,B,,B,, (3D,D,D, (3[B,,,B,,][B,,,B,,][B,,,B,,] | %2
 [B,,,,B,,,]2 (3B,,B,,B,, (3D,D,D, (3B,,B,,B,, | %3
 [B,,,,B,,,]2 (3B,,B,,B,, (3D,D,D, (3[B,,,B,,][B,,,B,,][B,,,B,,] | %4
 [B,,,,B,,,]2 (3[B,,D,][B,,D,][B,,D,] (3[D,F,][D,F,][D,F,] (3[B,,D,][B,,D,][B,,D,] | %5
 [B,,,,B,,,]2 (3[B,,D,][B,,D,][B,,D,] (3[D,F,][D,F,][D,F,] (3[B,,,B,,][B,,,B,,][B,,,B,,] | %6
 [B,,,,B,,,]2 (3[B,,D,][B,,D,][B,,D,] (3[D,F,][D,F,][D,F,] (3[B,,D,][B,,D,][B,,D,] | %7
 [B,,,,B,,,]2 (3[B,,D,][B,,D,][B,,D,] (3[D,F,][D,F,][D,F,] (3[B,,,B,,][B,,,B,,][B,,,B,,] | %8
 [B,,,,B,,,]2 (3[B,,D,][B,,D,][B,,D,] (3[D,F,][D,F,][D,F,] (3[B,,D,][B,,D,][B,,D,] | %9
 [E,,,E,,]2 (3[B,,D,][B,,D,][B,,D,] (3[D,G,][D,G,][D,G,] (3[B,,D,][B,,D,][B,,D,] | %10
 [E,,,E,,]2 (3[B,,D,][B,,D,][B,,D,] (3[D,G,][D,G,][D,G,] (3[B,,D,][B,,D,][B,,D,] | %11
 [B,,,,B,,,]2 (3[B,,D,][B,,D,][B,,D,] (3[D,F,][D,F,][D,F,] (3[B,,D,][B,,D,][B,,D,] | %12
 [B,,,,B,,,]2 (3[B,,D,][B,,D,][B,,D,] (3[D,F,][D,F,][D,F,] (3[B,,D,][B,,D,][B,,D,] | %13
 [E,,,E,,]2 (3[B,,D,][B,,D,][B,,D,] (3[D,G,][D,G,][D,G,] (3[B,,D,][B,,D,][B,,D,] | %14
 [E,,,E,,]2 (3[B,,D,][B,,D,][B,,D,] (3[D,G,][D,G,][D,G,] (3[B,,D,][B,,D,][B,,D,] | %15
 [B,,,,B,,,]2 (3[B,,D,][B,,D,][B,,D,] (3[D,F,][D,F,][D,F,] (3[B,,D,][B,,D,][B,,D,] | %16
 [G,,,G,,]2 (3[B,,D,][B,,D,][B,,D,] (3[D,G,][D,G,][D,G,] (3[B,,D,][B,,D,][B,,D,] | %17
 [B,,,,B,,,]2 (3[B,,D,][B,,D,][B,,D,] (3[D,F,][D,F,][D,F,] (3[B,,D,][B,,D,][B,,D,] | %18
 [G,,,G,,]2 (3[^G,,B,,][G,,B,,][G,,B,,] (3[B,,E,][B,,E,][B,,E,] (3[G,,B,,][G,,B,,][G,,B,,] | %19
 (3[E,,^G,,B,,E,][G,,B,,E,][G,,B,,E,] (3[E,,G,,B,,E,][G,,B,,E,][G,,B,,E,] (3[E,,G,,B,,E,][G,,B,,E,][G,,B,,E,] (3[E,,G,,B,,E,][G,,B,,E,][G,,B,,E,] | %20
 [B,,,,B,,,]2 (3B,,B,,B,, (3D,D,D, (3B,,B,,B,, | [G,,,G,,]2 (3B,,B,,B,, (3E,E,E, (3B,,B,,B,, | %22
 [E,,,E,,]2 (3B,,B,,B,, (3E,E,E, (3B,,B,,B,, | %23
 (3E,E,E, (3^G,G,G, (3[D,,D,][D,,D,][D,,D,] (3[^C,,^C,][C,,C,][C,,C,] | %24
 [B,,,,B,,,]2 (3B,,B,,B,, (3D,D,D, (3B,,B,,B,, | [G,,,G,,]2 (3D,D,D, (3G,G,G, (3D,D,D, | %26
 [E,,,E,,]2 (3E,E,E, (3^G,G,G, (3E,E,E, | %27
 (3^G,G,G, (3E,E,E, (3[E,,^G,,B,,E,][E,,G,,B,,E,][E,,G,,B,,E,] (3[E,,G,,B,,E,][E,,G,,B,,E,][E,,G,,B,,E,] | %28
 [G,,,G,,]2 D,2 B,2 D,2 | [E,,,E,,]2 B,,2 D,2 F,,2 | [E,,,E,,]2 B,,2 G,2 B,,2 | %31
 [B,,,B,,]2 F,2[K:treble] D2 F2 | [A,,,A,,]2 F,2 ^C2 F,2 | [G,,,G,,]2 D,2 B,2 D,2 | %34
 [^C,F,]2 [C,F,]2 (3[C,F,][C,F,][C,F,] [C,F,]2 | [^C,F,]2 [C,F,]2 (3[C,F,][C,F,][C,F,] [C,F,]2 | %36
 [F,,^C,F,]2 [F,,C,F,]2 (3[F,,C,F,][F,,C,F,][F,,C,F,] [F,,C,F,]2 | %37
 [F,,^C,F,]2 [F,,C,F,]2 (3[F,,C,F,][F,,C,F,][F,,C,F,] (3[F,,C,F,][F,,C,F,][F,,C,F,] | %38
[K:E] [G,,,G,,]2 (3G,,G,,G,, (3B,,B,,B,, (3G,,G,,G,, | %39
 [G,,,G,,]2 (3G,,G,,G,, (3B,,B,,B,, (3G,,G,,G,, | %40
 [G,,,G,,]2 (3[G,,B,,][G,,B,,][G,,B,,] (3[B,,D,][B,,D,][B,,D,] (3[G,,B,,][G,,B,,][G,,B,,] | %41
 [G,,,G,,]2 (3[G,,B,,][G,,B,,][G,,B,,] (3[B,,D,][B,,D,][B,,D,] (3[G,,B,,][G,,B,,][G,,B,,] | %42
 [G,,,G,,]2 (3[G,,B,,][G,,B,,][G,,B,,] (3[B,,D,][B,,D,][B,,D,] (3[G,,B,,][G,,B,,][G,,B,,] | %43
 [G,,,G,,]2 (3[G,,B,,][G,,B,,][G,,B,,] (3[B,,D,][B,,D,][B,,D,] (3[G,,B,,][G,,B,,][G,,B,,] | %44
 [G,,,G,,]2 (3[G,,B,,][G,,B,,][G,,B,,] (3[B,,D,][B,,D,][B,,D,] (3[G,,B,,][G,,B,,][G,,B,,] | %45
 [G,,,G,,]2 (3[G,,B,,][G,,B,,][G,,B,,] (3[B,,D,][B,,D,][B,,D,] (3[G,,,G,,][G,,,G,,][G,,,G,,] | %46
 [E,,,E,,]2 (3[G,,B,,][G,,B,,][G,,B,,] (3[B,,D,][B,,D,][B,,D,] (3[G,,B,,][G,,B,,][G,,B,,] | %47
 [B,,,,B,,,]2 (3[F,,B,,][F,,B,,][F,,B,,] (3[B,,D,][B,,D,][B,,D,] (3[F,,B,,][F,,B,,][F,,B,,] | %48
 [E,,,E,,]2 (3[B,,E,][B,,E,][B,,E,] (3[E,G,][E,G,][E,G,] (3[B,,E,][B,,E,][B,,E,] | %49
 [B,,,,B,,,]2 (3[B,,D,][B,,D,][B,,D,] (3[D,F,][D,F,][D,F,] (3[B,,D,][B,,D,][B,,D,] | %50
 [E,,,E,,]2 (3[G,,B,,][G,,B,,][G,,B,,] (3[B,,E,][B,,E,][B,,E,] (3[G,,B,,][G,,B,,][G,,B,,] | %51
 [C,,,C,,]2 (3[C,^E,][C,E,][C,E,] (3[E,G,][E,G,][E,G,] (3[C,E,][C,E,][C,E,] | %52
 [G,,,G,,]2 (3[G,,B,,][G,,B,,][G,,B,,] (3[B,,D,][B,,D,][B,,D,] (3[G,,B,,][G,,B,,][G,,B,,] | %53
 [E,,,E,,]2 (3[B,,E,][B,,E,][B,,E,] (3[E,G,][E,G,][E,G,] (3[B,,E,][B,,E,][B,,E,] | %54
 (3[E,G,][E,G,][E,G,] (3[B,,E,][B,,E,][B,,E,] (3[E,G,][E,G,][E,G,] (3[G,B,][G,B,]C | %55
[K:C#] [A,,,A,,]2 (3A,,A,,A,, (3C,C,C, (3A,,A,,A,, | [F,,,F,,]2 (3A,,A,,A,, (3D,D,D, (3A,,A,,A,, | %57
 [D,,,D,,]2 (3A,,A,,A,, (3D,D,D, (3A,,A,,A,, | %58
 (3D,D,D, (3^^F,F,F, (3[A,,E,A,][A,,E,A,][A,,E,A,] (3[A,,E,A,][A,,E,A,][A,,E,A,] | %59
 [A,,,A,,]2 (3A,,A,,A,, (3C,C,C, (3A,,A,,A,, | [F,,,F,,]2 (3A,,A,,A,, (3D,D,D, (3A,,A,,A,, | %61
 [D,,,D,,]2 (3A,,A,,A,, (3D,D,D, (3A,,A,,A,, | %62
 (3D,D,D, (3^^F,F,F, (3[F,,^F,][F,,F,][F,,F,] (3[G,,G,][G,,G,][G,,G,] | %63
 [A,,,A,,]2 (3A,,A,,A,, (3C,C,C, (3A,,A,,A,, | E,,2 (3A,,A,,A,, (3D,D,D, (3A,,A,,A,, | %65
 D,,2 (3A,,A,,A,, (3D,D,D, (3A,,A,,A,, | (3D,D,D, (3^^F,F,F, (3D,D,D, (3A,,A,,A,, | %67
 [A,,,A,,]2 [E,A,]2 (3[E,A,][E,A,][E,A,] [E,A,]2 | %68
 [F,,,F,,]2 [F,A,]2 (3[F,A,][F,A,][F,A,] [F,A,]2 | %69
 [D,,,D,,]2 [^^F,A,]2 (3[F,A,][F,A,][F,A,] [F,A,]2 | %70
 [A,,,A,,]2 [E,A,]2 (3[E,A,][E,A,][E,A,] [E,A,]2 | %71
 [F,,,F,,]2 [F,A,]2 (3[F,A,][F,A,][F,A,] [F,A,]2 | [F,A,]2 [F,A,]2 (3[F,A,][F,A,][F,A,] [F,A,]2 | %73
 [D,,,D,,]2 [^^F,A,]2 (3[F,A,][F,A,][F,A,] [F,A,]2 | %74
 (3[^^F,A,][F,A,][F,A,] [F,A,]2 (3[F,A,][F,A,][F,A,] [F,A,]2 |] %75

